packages/appstore/src/assets/svgs/wallet/tether-dark.svg

<svg width="128" height="80" viewBox="0 0 128 80" fill="none" xmlns="http://www.w3.org/2000/svg">
<path d="M26.5499 39.4314V37.1761C23.258 37.3222 20.8008 37.9007 20.8008 38.5892C20.8008 39.2823 23.2565 39.8593 26.5499 40.0054V40.0039C26.7623 40.0145 27.362 40.0371 28.2177 40.0371H28.4738C29.3672 40.0341 29.7785 40.01 29.8644 40.0039V40.0069C33.1488 39.8593 35.6015 39.2823 35.6015 38.5938C35.6015 37.9022 33.1518 37.3267 29.8644 37.1776V39.4314C29.8603 39.4318 29.8554 39.4321 29.8498 39.4326C29.7244 39.4428 29.2145 39.4842 28.2343 39.4842C27.3815 39.4842 26.7638 39.4465 26.5499 39.4314Z" fill="white"/>
<path fill-rule="evenodd" clip-rule="evenodd" d="M42.6087 38.5802L37.5616 27.5625H19.0486L14 38.5787L28.3051 52.9862L42.6087 38.5802ZM21.9669 31.8503H34.4475V34.9267H29.8629V36.944L29.8644 36.9471C33.5857 37.1188 36.3819 37.8631 36.3819 38.752C36.3819 39.6423 33.5857 40.3851 29.8644 40.5584V47.0246H26.5499V40.5584C22.8256 40.3836 20.0218 39.6408 20.0218 38.7504C20.0218 37.8585 22.8241 37.1173 26.5499 36.9455V34.9267H21.9669V31.8503Z" fill="white"/>
<path d="M53.3673 35.9537V32.6904H53.3658L50.5454 32.9947V35.9522H48.4166V38.4004H50.5454V43.3646C50.5454 46.2317 52.165 47.6524 54.6404 47.559C55.4976 47.5349 56.1695 47.3947 56.9786 47.0693L56.1906 44.6467C55.7748 44.8561 55.2656 44.9963 54.8257 44.9963C53.9458 44.9963 53.3447 44.4599 53.3447 43.3646V38.4019H56.5146V35.9537H53.3673Z" fill="white"/>
<path d="M107.846 37.1258L107.638 35.8L105.022 35.7955V47.2848H107.846V41.2253C107.846 39.1055 109.211 38.313 110.693 38.313C111.618 38.313 112.148 38.5706 112.727 39.0603L114 36.5895C113.376 35.9627 112.242 35.4957 111.062 35.4957C109.905 35.4957 108.725 35.7051 107.846 37.1258Z" fill="white"/>
<path fill-rule="evenodd" clip-rule="evenodd" d="M97.9202 45.0038C95.93 45.0038 94.7036 43.9778 94.5183 42.5556H103.427C103.867 37.8264 101.482 35.449 97.6641 35.449C93.9609 35.449 91.6001 37.9665 91.6001 41.4618C91.6001 45.1439 93.9398 47.5906 97.872 47.5906C99.6091 47.5906 101.575 46.9834 102.779 45.7254L100.976 43.9311C100.326 44.606 98.9597 45.0038 97.9202 45.0038ZM97.7575 37.9635C99.3771 37.9635 100.534 38.7108 100.719 40.2023H94.5635C94.9808 38.7108 96.2313 37.9635 97.7575 37.9635Z" fill="white"/>
<path d="M82.0709 37.3578V30.9744L79.2475 30.9759V47.2893H82.0709V41.4151C82.0709 39.69 83.2264 38.2693 84.8942 38.2693C86.3978 38.2693 87.4855 39.1537 87.4855 41.2524V47.2848H90.3089V41.2268C90.3089 37.8475 88.8731 35.6328 85.6339 35.6328C84.3383 35.6328 83.0893 36.029 82.0709 37.3578Z" fill="white"/>
<path d="M74.5741 35.8196V32.5608L71.7522 32.8652V35.8211H69.6234V38.2693H71.7522V43.2305C71.7522 46.0946 73.3718 47.5183 75.8486 47.4249C76.7044 47.4023 77.3763 47.2607 78.1854 46.9352L77.3989 44.5126C76.9816 44.7221 76.4724 44.8622 76.0324 44.8622C75.1541 44.8622 74.5515 44.3273 74.5515 43.2305V38.2678H77.7213V35.8196H74.5741Z" fill="white"/>
<path fill-rule="evenodd" clip-rule="evenodd" d="M63.9767 45.0053C61.9865 45.0053 60.7586 43.9793 60.5748 42.5571H69.4803C69.9187 37.8279 67.5368 35.4505 63.7191 35.4505C60.0174 35.4505 57.6565 37.968 57.6565 41.4633C57.6565 45.1454 59.9933 47.5921 63.9285 47.5921C65.6656 47.5921 67.6302 46.985 68.8355 45.7269L67.0306 43.9326C66.3827 44.6076 65.0163 45.0053 63.9767 45.0053ZM63.814 37.965C65.4336 37.965 66.5906 38.7123 66.7759 40.2038H60.62C61.0358 38.7123 62.2878 37.965 63.814 37.965Z" fill="white"/>
</svg>

<svg width="128" height="80" fill="none" xmlns="http://www.w3.org/2000/svg"><path d="M26.55 39.431v-2.255c-3.292.146-5.75.725-5.75 1.413 0 .693 2.456 1.27 5.75 1.416v-.001c.212.01.812.033 1.668.033h.256a23.374 23.374 0 0 0 1.39-.033v.003c3.285-.148 5.738-.725 5.738-1.413 0-.692-2.45-1.267-5.738-1.416v2.253l-.014.002c-.126.01-.636.051-1.616.051-.853 0-1.47-.038-1.684-.053z" fill="#fff"/><path fill-rule="evenodd" clip-rule="evenodd" d="m42.609 38.58-5.047-11.017H19.049L14 38.578l14.305 14.407L42.61 38.58zm-20.642-6.73h12.48v3.077h-4.584v2.017l.001.003c3.722.172 6.518.916 6.518 1.805 0 .89-2.796 1.633-6.518 1.806v6.467H26.55v-6.467c-3.724-.174-6.528-.917-6.528-1.808 0-.892 2.802-1.633 6.528-1.804v-2.02h-4.583V31.85z" fill="#fff"/><path d="M53.367 35.954V32.69h-.001l-2.82.305v2.957h-2.13V38.4h2.13v4.965c0 2.867 1.619 4.287 4.094 4.194a6.299 6.299 0 0 0 2.339-.49l-.788-2.422c-.416.21-.925.35-1.365.35-.88 0-1.481-.537-1.481-1.632v-4.963h3.17v-2.448h-3.148zM107.846 37.126l-.208-1.326-2.616-.005v11.49h2.824v-6.06c0-2.12 1.365-2.912 2.847-2.912.925 0 1.455.258 2.034.747L114 36.59c-.624-.627-1.758-1.094-2.938-1.094-1.157 0-2.337.21-3.216 1.63z" fill="#fff"/><path fill-rule="evenodd" clip-rule="evenodd" d="M97.92 45.004c-1.99 0-3.216-1.026-3.402-2.448h8.909c.44-4.73-1.945-7.107-5.763-7.107-3.703 0-6.064 2.518-6.064 6.013 0 3.682 2.34 6.129 6.272 6.129 1.737 0 3.703-.608 4.907-1.866l-1.803-1.794c-.65.675-2.016 1.073-3.056 1.073zm-.163-7.04c1.62 0 2.777.747 2.962 2.238h-6.155c.417-1.491 1.667-2.238 3.194-2.238z" fill="#fff"/><path d="M82.07 37.358v-6.384l-2.822.002v16.313h2.823v-5.874c0-1.725 1.155-3.146 2.823-3.146 1.504 0 2.591.885 2.591 2.983v6.033h2.824v-6.058c0-3.38-1.436-5.594-4.675-5.594-1.296 0-2.545.396-3.563 1.725zM74.574 35.82v-3.26l-2.822.305v2.956h-2.129v2.448h2.13v4.962c0 2.864 1.619 4.287 4.096 4.194a6.266 6.266 0 0 0 2.336-.49l-.786-2.422c-.417.21-.927.35-1.367.35-.878 0-1.48-.536-1.48-1.633v-4.962h3.17V35.82h-3.148z" fill="#fff"/><path fill-rule="evenodd" clip-rule="evenodd" d="M63.977 45.005c-1.99 0-3.218-1.026-3.402-2.448h8.905c.439-4.73-1.943-7.107-5.76-7.107-3.703 0-6.063 2.518-6.063 6.013 0 3.682 2.336 6.13 6.272 6.13 1.737 0 3.701-.608 4.906-1.866l-1.804-1.794c-.648.675-2.015 1.072-3.054 1.072zm-.163-7.04c1.62 0 2.777.747 2.962 2.239H60.62c.416-1.492 1.668-2.239 3.194-2.239z" fill="#fff"/></svg>
